_src/assets/icons/original/github.svg

<svg xmlns="http://www.w3.org/2000/svg" preserveAspectRatio="xMidYMid" width="33" height="32" viewBox="0 0 33 32"><defs><style>.cls-2 { fill: #d9d9d9; }</style></defs><path d="M16.492 0c-9.104 0-16.487 7.313-16.487 16.336 0 7.217 4.724 13.34 11.276 15.5.825.15 1.125-.354 1.125-.787l-.022-2.779c-4.586.988-5.554-2.189-5.554-2.189-.75-1.887-1.831-2.39-1.831-2.39-1.497-1.013.114-.993.114-.993 1.654.116 2.525 1.684 2.525 1.684 1.471 2.496 3.859 1.775 4.799 1.357.149-1.056.575-1.776 1.046-2.184-3.661-.412-7.51-1.814-7.51-8.074 0-1.783.643-3.241 1.697-4.383-.169-.413-.735-2.074.162-4.323 0 0 1.384-.44 4.534 1.674 1.315-.362 2.726-.543 4.128-.55 1.4.007 2.81.188 4.127.55 3.148-2.114 4.53-1.674 4.53-1.674.9 2.249.334 3.91.164 4.323 1.057 1.142 1.695 2.6 1.695 4.383 0 6.276-3.855 7.657-7.528 8.061.592.505 1.119 1.502 1.119 3.025 0 2.184-.02 3.946-.02 4.482 0 .437.297.945 1.134.785 6.546-2.164 11.266-8.283 11.266-15.498 0-9.023-7.383-16.336-16.489-16.336z" id="path-1" class="cls-2" fill-rule="evenodd"/></svg>

<svg xmlns="http://www.w3.org/2000/svg" xmlns:xlink="http://www.w3.org/1999/xlink" preserveAspectRatio="xMidYMid" width="33" height="32" viewBox="0 0 33 32">
  <defs>
    <style>

      .cls-2 {
        fill: #d9d9d9;
      }
    </style>
  </defs>
  <path d="M16.492,-0.000 C7.388,-0.000 0.005,7.313 0.005,16.336 C0.005,23.553 4.729,29.676 11.281,31.836 C12.106,31.986 12.406,31.482 12.406,31.049 C12.406,30.661 12.392,29.634 12.384,28.270 C7.798,29.258 6.830,26.081 6.830,26.081 C6.080,24.194 4.999,23.691 4.999,23.691 C3.502,22.678 5.113,22.698 5.113,22.698 C6.767,22.814 7.638,24.382 7.638,24.382 C9.109,26.878 11.497,26.157 12.437,25.739 C12.586,24.683 13.012,23.963 13.483,23.555 C9.822,23.143 5.973,21.741 5.973,15.481 C5.973,13.698 6.616,12.240 7.670,11.098 C7.501,10.685 6.935,9.024 7.832,6.775 C7.832,6.775 9.216,6.335 12.366,8.449 C13.681,8.087 15.092,7.906 16.494,7.899 C17.894,7.906 19.304,8.087 20.621,8.449 C23.769,6.335 25.151,6.775 25.151,6.775 C26.051,9.024 25.485,10.685 25.315,11.098 C26.372,12.240 27.010,13.698 27.010,15.481 C27.010,21.757 23.155,23.138 19.482,23.542 C20.074,24.047 20.601,25.044 20.601,26.567 C20.601,28.751 20.581,30.513 20.581,31.049 C20.581,31.486 20.878,31.994 21.715,31.834 C28.261,29.670 32.981,23.551 32.981,16.336 C32.981,7.313 25.598,-0.000 16.492,-0.000 Z" id="path-1" class="cls-2" fill-rule="evenodd"/>
</svg>
